X:1
T:Dollia
M:4/4
L:1/8
K:Bb
 CC EF GE C2| EF G2 EF G2| C2 EF GE C2| EF G2 C2 z2| _A2 GF GE C2|\
E-F G2E-F G2| _A2 GF GE C2| EFG-G, C4|

